X: 1232
T: Australian Jim
B: australian traditional tunes wiki
M:4/4
L:1/8
R: Schottische
Q: 1/4=100
K:G
V:1 
B>A|"G"(3GFG D>G E>G D>G|"Am"E>G A>B "D7"c2 B>A|"G"G>g f>g "Am"e>d c>B|"D7"(3ABA (3GFE D2 B>A|
"G"(3GFG D>G E>G D>G|"Am"E>G A>B "D7"c2 B>A|"G"G>g f>g "Am"e>d (3cBA|"D7" G2 B2 "G" G2 |]
B>c|"G"d>g f>g "Em"e>d B>c|"G"d>g f>g "Em"e2 B>c|"G"d>g f>g "Am"e>d c>B|"D7"(3ABA (3GFE D2 B>A|
"G"(3GFG D>G E>G D>G|"Am"E>G A>B "D7"c2 B>A|"G"G>g f>g "Am"e>d (3cBA|"D7"G2 B2 "G"G2||
% abcbook-tune_id 6342d53acfd166d297d7614f


% abcbook-boost 0
% abcbook-tablature 
% abcbook-transpose 
% abcbook-lastupdated 1665324355145
% abcbook-soundfonts 
% abcbook-repeats 1
% NFF Book 2006

